src/icons/logout.svg

<svg xmlns="http://www.w3.org/2000/svg"  viewBox="0 0 50 50" width="32px" height="32px"><path d="M 3 0 C 1.347656 0 0 1.347656 0 3 L 0 47 C 0 48.652344 1.347656 50 3 50 L 37 50 C 38.652344 50 40 48.652344 40 47 L 40 38.15625 C 39.457031 38.625 38.785156 38.90625 38.0625 38.90625 C 37.261719 38.90625 36.503906 38.566406 35.9375 38 C 34.765625 36.828125 34.765625 34.953125 35.9375 33.78125 L 40 29.6875 L 40 28 L 17 28 C 15.347656 28 14 26.652344 14 25 C 14 23.347656 15.347656 22 17 22 L 40 22 L 40 20.3125 L 35.9375 16.21875 C 35.371094 15.652344 35.0625 14.925781 35.0625 14.125 C 35.0625 13.324219 35.371094 12.566406 35.9375 12 C 36.503906 11.433594 37.261719 11.125 38.0625 11.125 C 38.785156 11.125 39.457031 11.375 40 11.84375 L 40 3 C 40 1.347656 38.652344 0 37 0 Z M 38.0625 13.125 C 37.808594 13.125 37.539063 13.210938 37.34375 13.40625 C 36.953125 13.796875 36.953125 14.421875 37.34375 14.8125 L 46.53125 24 L 17 24 C 16.449219 24 16 24.449219 16 25 C 16 25.550781 16.449219 26 17 26 L 46.53125 26 L 37.34375 35.1875 C 36.953125 35.578125 36.953125 36.203125 37.34375 36.59375 C 37.539063 36.789063 37.804688 36.90625 38.0625 36.90625 C 38.320313 36.90625 38.554688 36.789063 38.75 36.59375 L 50.34375 25 L 38.75 13.40625 C 38.554688 13.210938 38.316406 13.125 38.0625 13.125 Z"/></svg>

<svg role="img" viewBox="0 0 50 50" xmlns="http://www.w3.org/2000/svg"><path d="M3 0C1.348 0 0 1.348 0 3v44c0 1.652 1.348 3 3 3h34c1.652 0 3-1.348 3-3v-8.844c-.543.469-1.215.75-1.937.75A3.02 3.02 0 0 1 35.937 38a2.97 2.97 0 0 1 0-4.219L40 29.688V28H17c-1.652 0-3-1.348-3-3s1.348-3 3-3h23v-1.687l-4.062-4.094a2.915 2.915 0 0 1-.876-2.094 2.987 2.987 0 0 1 3-3c.723 0 1.395.25 1.938.719V3c0-1.652-1.348-3-3-3Zm35.063 13.125a1.02 1.02 0 0 0-.72.281.99.99 0 0 0 0 1.406L46.532 24H17c-.55 0-1 .45-1 1s.45 1 1 1h29.531l-9.187 9.188a.99.99 0 0 0 0 1.406c.195.195.46.312.718.312.258 0 .493-.117.688-.312L50.344 25 38.75 13.406a.944.944 0 0 0-.687-.281"/></svg>
